X: 1
T: THE COCK AND THE HEN -- JIG
B: Ryan's Mammoth Collection of Fiddle Tunes
R: jig
M: 9/8
L: 1/8
Z: Contributed 20010527155955 by John Chambers jc:trillian.mit.edu
K: G
 vBcB BAB g2e | BcB BAB dcB | BcB BAB g2e | f2d e2B dBA :|
|:afd def g2e | afd def gfe | afd def g2e | fed e2B dBA :|
